X:1
T:Soldiers of King Jesus
T:Soldiers of King Jesus
T:H. N. Lindsay
T:Ada J. Blenkhorn, 1900
T:Public Domain Courtesy of the Cyber Hymnal™
C:H. N. Lindsay
Z:Public Domain
Z:Courtesy of the Cyber Hymnal™
%%score ( 1 2 ) ( 3 4 )
L:1/8
Q:1/4=107
M:3/4
K:F
V:1 treble 
V:2 treble 
V:3 bass 
V:4 bass 
V:1
 C>C | [CF]2 [CF]2 A>d | c2 A2 F>G | [FA]4 [EG]2 | F4 C>C | [CF]2 [CF]2 A>d | c2 A2 [Gc]>[Ad] | %7
w: 1.~We are|sold- iers of King|Je- sus, Clad in|ar- mor|bright; And we|fol- low where He|leads us, Fight- ing|
w: 2.~We are|sold- iers of King|Je- sus, He’s our|cap- tain|true, And what-|ev- er He shall|bid us, We will|
w: 3.~We are|sold- iers of King|Je- sus, We’re a|loy- al|band; We are|bold, and brave, and|fear- less, True to|
w: 4.~We are|sold- iers of King|Je- sus; Tho’ the|fight be|long, We shall|share the vic- tor’s|tri- umph, Sing the|
 [Ge]4 [Fd]2 | [Ec]4 ||"^Refrain" [Cc]>[Cc] | [Cc]2 [Cc]2 [EG]>[FA] | [GB]2 [GB]2 [Ac]>[Ac] | %12
w: for the|right.||||
w: glad- ly|do.|March- ing,|march- ing ev- er|on- ward, ’Neath His|
w: His com-|mand.||||
w: vic- tor’s|song.||||
 [Ac]2 [CF]2 [EG]2 | [FA]4 C>C | [CF]2 [CF]2 A>d | c2 A2 F>G | [FA]4 [EG]2 | F4 |] %18
w: ||||||
w: ban- ner so|bright, We are|sol- diers of King|Je- sus, Fight- ing|for the|right.|
w: ||||||
w: ||||||
V:2
 C>C | x4 A>d | c2 A2 F>G | x6 | F4 C>C | x4 A>d | c2 A2 x2 | x6 | x4 || x2 | x6 | x6 | x6 | %13
 x4 C>C | x4 A>d | c2 A2 F>G | x6 | F4 |] %18
V:3
 [C,C]>[C,B,] | [F,,F,A,]2 [F,,F,A,]2 A,>D | C2 A,2 [A,,C]>[A,,D] | [C,C]4 [C,B,]2 | %4
 [F,,F,A,]4 [C,C]>[C,B,] | [F,,F,A,]2 [F,,F,A,]2 A,>D | C2 A,2 [E,C]>[F,C] | [G,C]4 [G,,=B,]2 | %8
 [C,G,]4 || C>C | C2 C2 [C,C]>[C,C] | [C,C]2 [C,C]2 [F,C]>[F,C] | (C2 A,2) [C,C]2 | %13
 [F,C]4 [C,C]>[C,B,] | [F,,F,A,]2 [F,,F,A,]2 A,>D | C2 A,2 [A,,C]>[B,,D] | [C,C]4 [C,B,]2 | %17
 [F,,F,A,]4 |] %18
V:4
 x2 | x4 A,>D | C2 A,2 x2 | x6 | x6 | x4 A,>D | C2 A,2 x2 | x6 | x4 || C>C | C2 C2 x2 | x6 | %12
 F,4 x2 | x6 | x4 A,>D | C2 A,2 x2 | x6 | x4 |] %18

